X:1
T:St. Alkmund, LM
T:Easy Music for Church Choirs, 1853
T:St. Alkmund, LM
T:Public Domain
C:Easy Music for Church Choirs, 1853
Z:Public Domain
%%score ( 1 2 ) ( 3 4 )
L:1/8
M:3/4
K:G
V:1 treble 
V:2 treble 
V:3 bass 
V:4 bass 
V:1
 [DG]2 | (B2 A2) G2 | (GA) [GB]2 [EA]2 | (G2 A2) [DF]2 | [DG]4 [DF]2 | [DG]4 (EF) | %6
 [GB]2 [Dc]2 (GF) | (B2 A2) [EG]2 | [DF]4 [DG]2 | [DB]2 (EF) G2 | ([Cc]2 [DB]2) [EA]2 | %11
 (A2 B2) [FA]2 | G4 G2 | [EA]4 [EB]2 | (c2 B2) [EA]2 | (G2 A2) [DF]2 | [DG]4 |] %17
V:2
 x2 | D4 G2 | c2 x4 | D4 x2 | x6 | x4 A2 | x4 B2 | E4 x2 | x6 | x2 A2 G2 | x6 | F4 x2 | G4 G2 | %13
 x6 | E4 x2 | D4 x2 | x4 |] %17
V:3
 [G,B,]2 | D2 C2 [G,B,]2 | (E,F,) [G,D]2 [C,C]2 | (B,2 C2) [D,A,]2 | [G,B,]4 [A,C]2 | %5
 [B,D]4 [A,C]2 | [G,B,]2 [F,A,]2 [G,B,]2 | [B,,C]4 [E,B,]2 | [D,D]4 [G,B,]2 | %9
 (D2 C2) ([G,B,][F,A,]) | (E,2 D,2) [C,E]2 | [D,D]4 [D,C]2 | [E,B,]4 [E,B,]2 | [C,A,]4 [B,,^G,]2 | %14
 ([A,,A,]2 [B,,D]2) [C,C]2 | (B,2 C2) [D,A,]2 | [G,,B,]4 |] %17
V:4
 x2 | G,4 x2 | E2 x4 | D,4 x2 | x6 | x6 | x6 | x6 | x6 | G,4 x2 | G,4 x2 | x6 | x6 | x6 | x6 | %15
 D,4 x2 | x4 |] %17

